static/logos/lookback-glyph-color.svg

<svg width="50" height="50" viewBox="0 0 50 50" fill="none" xmlns="http://www.w3.org/2000/svg">
<g clip-path="url(#clip0_1_2114)">
<path d="M25 50C38.8071 50 50 38.8071 50 25C50 11.1929 38.8071 0 25 0C11.1929 0 0 11.1929 0 25C0 38.8071 11.1929 50 25 50Z" fill="#192D41"/>
<path fill-rule="evenodd" clip-rule="evenodd" d="M30.5012 7.16916C34.7423 8.54117 37.8143 11.0302 39.6473 14.5792C40.8954 16.9956 41.328 18.6722 41.4475 21.5546C41.6157 25.6089 40.684 29.4554 38.4994 33.7261C37.0506 36.5585 35.4371 38.7907 33.0338 41.2875C31.0357 43.3633 30.5054 43.6824 29.9606 43.1377C29.484 42.661 29.7769 42.1295 31.5699 40.2172C35.6446 35.8707 38.2321 31.1724 39.2966 26.1878C39.7487 24.0701 39.7097 20.3207 39.2159 18.4381C37.9599 13.6508 34.344 10.1043 29.3691 8.77997C27.312 8.23248 23.8494 8.23943 21.741 8.79541C16.4381 10.1935 12.6703 13.8529 11.0883 19.1416C10.6375 20.6483 10.5678 21.2249 10.5628 23.4851C10.5512 28.7566 12.1373 32.8334 15.617 36.4757C16.9323 37.8521 19.8093 40.033 20.0251 39.817C20.0749 39.7674 19.894 39.4365 19.6234 39.0817C19.3529 38.7268 18.8454 37.8307 18.4956 37.0902C17.9624 35.9614 17.8591 35.5199 17.8562 34.3577C17.8533 33.2297 17.778 32.8884 17.4514 32.5238C15.5336 30.383 15.0823 26.7776 16.3798 23.9626C17.0021 22.6124 17.0033 22.6046 16.6765 21.8398C16.1906 20.7021 16.2371 18.9417 16.7832 17.8138C17.7402 15.8369 20.344 13.9852 23.0906 13.3284C24.6265 12.961 28.0392 12.8991 29.3377 13.2149C29.8126 13.3304 30.2323 13.3937 30.2703 13.3556C30.3083 13.3176 30.2394 13.0999 30.1174 12.8717C29.9475 12.5543 29.9512 12.3892 30.133 12.1701C30.6147 11.5898 31.1502 11.9487 31.8946 13.35C32.2894 14.0933 32.6153 14.8473 32.6186 15.0257C32.6276 15.5041 29.7767 17.0456 29.3626 16.7863C28.8274 16.451 28.8763 15.8178 29.4606 15.5114C29.9844 15.2371 29.9792 15.2336 28.7327 15.0165C23.5659 14.1168 18.1355 16.6502 18.1489 19.9543C18.1537 21.1448 18.3284 21.2218 19.405 20.5077C23.5676 17.7472 31.4294 18.2744 33.3894 21.4458C33.9313 22.3228 33.9116 23.6224 33.3433 24.4701C31.5647 27.1228 24.4917 27.6444 20.1338 25.4446C19.5056 25.1274 18.8776 24.7305 18.7383 24.5627C18.5989 24.3948 18.4224 24.2573 18.3464 24.2573C18.122 24.2573 17.8039 25.0975 17.5612 26.3311C17.2761 27.7801 17.5307 29.1514 18.3514 30.5877L18.935 31.6089L19.6861 30.9658C21.7272 29.2187 25.183 28.3869 28.378 28.8734C30.4323 29.1861 31.4877 29.5753 32.4002 30.3562C33.9244 31.6608 33.9112 33.4017 32.3666 34.8255C31.1784 35.9207 29.6688 36.4377 27.3159 36.5546C24.95 36.6724 23.1309 36.3245 21.1738 35.3803C20.4122 35.0129 19.7512 34.75 19.705 34.796C19.6591 34.8421 19.7666 35.3348 19.9442 35.8909C20.3645 37.2071 21.8209 39.1216 23.6408 40.7504C24.6962 41.695 25.0958 42.1817 25.0958 42.522C25.0958 43.6568 23.3566 43.5029 20.2979 42.0977C14.2854 39.3355 9.962 33.5145 8.87261 26.7143C8.5701 24.8263 8.73613 20.5523 9.17454 18.9485C10.4292 14.3574 13.6562 10.3929 17.8564 8.28267C20.6023 6.90313 22.611 6.48981 26.1576 6.57418C28.4688 6.6292 29.0979 6.7153 30.5012 7.16916ZM19.7095 22.5934C20.1595 22.0512 21.5612 21.3593 22.9915 20.9734C24.8855 20.4624 28.3786 20.5299 29.7937 21.1048C30.985 21.5892 32.0456 22.433 32.0456 22.8971C32.0456 23.0954 31.7809 23.4805 31.4574 23.7527C29.3666 25.512 23.123 25.2998 20.2077 23.3707C19.5906 22.9622 19.5089 22.8349 19.7095 22.5934ZM20.4626 32.751C20.4626 32.3141 22.8232 31.1017 24.2091 30.827C27.3593 30.2023 31.4697 31.0882 31.6247 32.4251C31.8261 34.1626 27.3792 35.2813 23.8688 34.3763C22.6774 34.0691 20.4626 33.0122 20.4626 32.751Z" fill="#F1AE0E"/>
</g>
<defs>
<clipPath id="clip0_1_2114">
<rect width="50" height="50" fill="white"/>
</clipPath>
</defs>
</svg>

<svg xmlns="http://www.w3.org/2000/svg" width="64" height="64" fill="none" viewBox="0 0 50 50"><g clip-path="url(#a)"><path fill="#192D41" d="M25 50c13.807 0 25-11.193 25-25S38.807 0 25 0 0 11.193 0 25s11.193 25 25 25Z"/><path fill="#F1AE0E" fill-rule="evenodd" d="M30.501 7.17c4.241 1.371 7.313 3.86 9.146 7.41 1.248 2.416 1.681 4.092 1.8 6.975.169 4.054-.763 7.9-2.948 12.171-1.448 2.833-3.062 5.065-5.465 7.562-1.998 2.075-2.529 2.394-3.073 1.85-.477-.477-.184-1.008 1.609-2.92 4.075-4.347 6.662-9.046 7.727-14.03.452-2.118.413-5.867-.081-7.75-1.256-4.787-4.872-8.334-9.847-9.658-2.057-.548-5.52-.54-7.628.015-5.303 1.399-9.07 5.058-10.653 10.347-.45 1.506-.52 2.083-.525 4.343-.012 5.272 1.574 9.348 5.054 12.99 1.315 1.377 4.192 3.558 4.408 3.342.05-.05-.131-.38-.402-.735-.27-.355-.778-1.251-1.127-1.992-.534-1.129-.637-1.57-.64-2.732-.003-1.128-.078-1.47-.405-1.834-1.917-2.141-2.369-5.746-1.071-8.561.622-1.35.623-1.358.297-2.123-.486-1.138-.44-2.898.106-4.026.957-1.977 3.561-3.829 6.308-4.486 1.535-.367 4.948-.429 6.247-.113.475.115.894.179.932.14.038-.037-.03-.255-.153-.483-.17-.318-.166-.483.016-.702.482-.58 1.017-.221 1.762 1.18.394.743.72 1.497.724 1.676.009.478-2.842 2.02-3.256 1.76-.536-.335-.487-.968.098-1.275.523-.274.518-.277-.728-.494-5.167-.9-10.598 1.633-10.584 4.937.005 1.19.18 1.268 1.256.554 4.163-2.76 12.024-2.234 13.984.938.542.877.523 2.176-.046 3.024-1.778 2.653-8.851 3.174-13.21.975-.627-.318-1.255-.715-1.395-.882-.14-.168-.316-.306-.392-.306-.224 0-.542.84-.785 2.074-.285 1.45-.03 2.82.79 4.257l.584 1.02.751-.642c2.041-1.747 5.497-2.58 8.692-2.093 2.054.313 3.11.702 4.022 1.483 1.524 1.305 1.511 3.046-.033 4.47-1.189 1.095-2.698 1.612-5.051 1.729-2.366.117-4.185-.23-6.142-1.175-.762-.367-1.423-.63-1.469-.584-.046.046.062.539.24 1.095.42 1.316 1.876 3.23 3.696 4.86 1.055.944 1.455 1.43 1.455 1.771 0 1.135-1.74.98-4.798-.424-6.013-2.762-10.336-8.584-11.425-15.384-.303-1.888-.137-6.162.302-7.765 1.254-4.592 4.481-8.556 8.681-10.666 2.746-1.38 4.755-1.793 8.302-1.709 2.31.055 2.94.141 4.343.595ZM19.71 22.592c.45-.542 1.852-1.234 3.282-1.62 1.895-.51 5.388-.443 6.803.132 1.191.484 2.252 1.328 2.252 1.792 0 .198-.265.584-.589.856-2.09 1.759-8.334 1.547-11.25-.382-.616-.409-.698-.536-.498-.778Zm.754 10.158c0-.437 2.36-1.65 3.746-1.924 3.15-.625 7.26.261 7.416 1.598.201 1.738-4.246 2.856-7.756 1.951-1.192-.307-3.406-1.364-3.406-1.625Z" clip-rule="evenodd"/></g><defs><clipPath id="a"><path fill="#fff" d="M0 0h50v50H0z"/></clipPath></defs></svg>
